svgs/light/phone-office.svg

<svg xmlns="http://www.w3.org/2000/svg" viewBox="0 0 576 512"><path d="M352 320h-32c-17.66 0-32 14.36-32 32v32c0 17.64 14.34 32 32 32h32c17.66 0 32-14.36 32-32v-32c0-17.64-14.34-32-32-32zm0 64h-32v-32h32v32zm0-192h-32c-17.66 0-32 14.36-32 32v32c0 17.64 14.34 32 32 32h32c17.66 0 32-14.36 32-32v-32c0-17.64-14.34-32-32-32zm0 64h-32v-32h32v32zm128 64h-32c-17.66 0-32 14.36-32 32v32c0 17.64 14.34 32 32 32h32c17.66 0 32-14.36 32-32v-32c0-17.64-14.34-32-32-32zm0 64h-32v-32h32v32zm0-192h-32c-17.66 0-32 14.36-32 32v32c0 17.64 14.34 32 32 32h32c17.66 0 32-14.36 32-32v-32c0-17.64-14.34-32-32-32zm0 64h-32v-32h32v32zm32-224H237.06C230.45 13.4 212.87 0 192 0h-64c-20.87 0-38.45 13.4-45.06 32H64C28.65 32 0 60.65 0 96v352c0 35.35 28.65 64 64 64h448c35.35 0 64-28.65 64-64V96c0-35.35-28.65-64-64-64zM320 64h160v64H320V64zM112 48c0-8.82 7.18-16 16-16h64c8.82 0 16 7.18 16 16v336c0 8.82-7.18 16-16 16h-64c-8.82 0-16-7.18-16-16V48zm432 400c0 17.64-14.36 32-32 32H64c-17.64 0-32-14.36-32-32V96c0-17.64 14.36-32 32-32h16v320c0 26.51 21.49 48 48 48h64c26.51 0 48-21.49 48-48V64h48v64c0 17.64 14.34 32 32 32h160c17.66 0 32-14.36 32-32V64c17.64 0 32 14.36 32 32v352z"/></svg>

<svg xmlns="http://www.w3.org/2000/svg" viewBox="0 0 576 512"><!--! Font Awesome Pro 6.0.0-alpha3 by @fontawesome - https://fontawesome.com License - https://fontawesome.com/license (Commercial License) --><path d="M352 320h-32c-17.62 0-32 14.38-32 32v32c0 17.62 14.38 32 32 32h32c17.62 0 32-14.38 32-32v-32C384 334.4 369.6 320 352 320zM352 384h-32v-32h32V384zM352 192h-32c-17.62 0-32 14.38-32 32v32c0 17.62 14.38 32 32 32h32c17.62 0 32-14.38 32-32V224C384 206.4 369.6 192 352 192zM352 256h-32V224h32V256zM480 320h-32c-17.62 0-32 14.38-32 32v32c0 17.62 14.38 32 32 32h32c17.62 0 32-14.38 32-32v-32C512 334.4 497.6 320 480 320zM480 384h-32v-32h32V384zM480 192h-32c-17.62 0-32 14.38-32 32v32c0 17.62 14.38 32 32 32h32c17.62 0 32-14.38 32-32V224C512 206.4 497.6 192 480 192zM480 256h-32V224h32V256zM512 32H237C230.5 13.38 212.9 0 192 0H128C107.1 0 89.5 13.38 83 32H64C28.62 32 0 60.62 0 96v352c0 35.38 28.62 64 64 64h448c35.38 0 64-28.62 64-64V96C576 60.62 547.4 32 512 32zM320 64h160v64h-160V64zM112 48C112 39.12 119.1 32 128 32h64c8.875 0 16 7.125 16 16V384c0 8.875-7.125 16-16 16H128c-8.875 0-16-7.125-16-16V48zM544 448c0 17.62-14.38 32-32 32H64c-17.62 0-32-14.38-32-32V96c0-17.62 14.38-32 32-32h16v320c0 26.5 21.5 48 48 48h64c26.5 0 48-21.5 48-48V64H288v64c0 17.62 14.38 32 32 32h160c17.62 0 32-14.38 32-32V64c17.62 0 32 14.38 32 32V448z"/></svg>
